X:1
T:Title
%%score { 1 | 2 }
L:1/8
M:6/8
K:F
V:1 treble nm="Grand Piano"
V:2 bass 
V:1
 z3[Q:1/4=90] CFG | A3 FF>E | E3- E C2 | [EB]3 [EG][Ec]>[GB] |[M:3/8] A3 | CFG |[M:3/4] A3 F F>E | %7
 E4 G2 | [F=B]3 G [DF]>[=B,D] |[M:3/8] C3 | Ac>c |[M:3/4] c3 A GF | F3 [DF] [CE][B,D] | %13
 [A,C]3 [FA] [EA]>G |[M:3/8] F3 | FF>E |[M:3/4] E3 G G>F | F3 C FA | c3 A [FG]>[DF] | %19
[M:3/8] [EG]3 | CFA |[M:3/4] c3 A GF | F3 [DF] [CE][B,D] | [A,C]3 [FA] [EA]<[EG] |[M:3/8] [CF]3 |] %25
V:2
 z3 [F,A,][F,A,C][F,B,F] | [F,CF]3 [F,A,C][G,B,C]>[G,B,C] | [G,B,C]3- [G,B,C] [G,B,]2 | %3
 [C,C]3 [C,C][C,G,]>[C,C] |[M:3/8] [F,CF]3 | [F,A,][F,A,C][F,B,F] | %6
[M:3/4] [F,CF]3 [A,C] [G,=B,D]>[G,C] | [G,C]4 [E,G,C]2 | [D,G,]3 [G,E] [G,,G,]>[G,,F,] | %9
[M:3/8] [C,E,]3 | [F,C][F,A,F]>[F,A,F] |[M:3/4] [F,A,F]3 [F,CF] [G,CE][A,C_E] | %12
 [B,D]3 [B,,B,] [B,,B,][B,,F,] | [C,F,]3 [C,C] [C,C]>[C,B,C] |[M:3/8] [F,A,C]3 | %15
 [F,A,C][G,B,C]>[G,B,C] |[M:3/4] [G,B,C]3 [C,B,C] [F,B,C]>[F,A,C] | [F,A,C]3 [F,A,] [F,A,C][F,CF] | %18
 [F,A,F]3 [F,CF] [D,=B,]>[G,B,] |[M:3/8] [C,C]3 | [F,A,][F,A,C][F,CF] | %21
[M:3/4] [F,A,F]3 [F,CF] [G,CE][A,C_E] | [B,D]3 [B,,B,] [B,,B,][B,,F,] | %23
 [C,F,]3 [C,C] [C,C]<[C,B,] |[M:3/8] [F,A,]3 |] %25

